X:1
T:St. Agnes - Dykes
T:St. Agnes - Dykes
T:Version 3
Z:Version 3
%%score ( 1 2 ) ( 3 4 )
L:1/8
M:3/4
K:C
V:1 treble nm="ChrchOrg"
V:2 treble 
V:3 bass nm="ChrchOrg-2"
V:4 bass 
V:1
 [Ge]2 [Ge]2 [Ge]2 | [Ad]4 [Ge]2 | f4 [GB]2 | [Ge]6 | G2 G2 G2 | [Ge]4 [^Fd]2 | [Gd]6 | %7
 [Af]2 [Af]2 [Ge]2 | [Fd]4 [^Fc]2 | [GB]4 [^FA]2 | G6 | G2 [GA]2 [Fc]2 | e4 [Fd]2 | [Ec]6 |] %14
V:2
 x6 | x6 | (F2 A2) x2 | x6 | G2 G2 G2 | x6 | x6 | x6 | x6 | x6 | x6 | x6 | (E2 G2) x2 | x6 |] %14
V:3
 [C,C]2 [C,C]2 [E,C]2 | [F,F]4 [E,C]2 | [D,D]4 [G,D]2 | [CE]6 | [DF]2 [CE]2 [B,D]2 | C4 [A,C]2 | %6
 [G,B,]6 | [D,A,]2 [D,B,]2 [D,^C]2 | [D,D]4 [D,D]2 | [G,D]4 [G,C]2 | B,6 | [E,C]2 [F,C]2 [A,C]2 | %12
 [G,C]4 [G,B,]2 | [C,G,]6 |] %14
V:4
 x6 | x6 | x6 | x6 | x6 | C4 x2 | x6 | x6 | x6 | x6 | (G,4 F,2) | x6 | x6 | x6 |] %14

